data/tilesets/flags/canada.svg

<?xml version="1.0" encoding="UTF-8" standalone="no"?>
<svg
   xmlns:dc="http://purl.org/dc/elements/1.1/"
   xmlns:cc="http://creativecommons.org/ns#"
   xmlns:rdf="http://www.w3.org/1999/02/22-rdf-syntax-ns#"
   xmlns:svg="http://www.w3.org/2000/svg"
   xmlns="http://www.w3.org/2000/svg"
   xmlns:sodipodi="http://sodipodi.sourceforge.net/DTD/sodipodi-0.dtd"
   xmlns:inkscape="http://www.inkscape.org/namespaces/inkscape"
   style="fill:#28ff09;fill-opacity:1;stroke:none"
   width="744pt"
   height="496.05936pt"
   id="canada"
   sodipodi:docname="canada.svg"
   sodipodi:version="0.32"
   inkscape:version="1.0.2 (e86c870879, 2021-01-15)"
   version="1.1">
  <metadata
     id="metadata2989">
    <rdf:RDF>
      <cc:Work
         rdf:about="">
        <dc:format>image/svg+xml</dc:format>
        <dc:type
           rdf:resource="http://purl.org/dc/dcmitype/StillImage" />
      </cc:Work>
    </rdf:RDF>
  </metadata>
  <defs
     id="defs3" />
  <sodipodi:namedview
     id="base"
     gridtolerance="10px"
     guidetolerance="5.000000"
     guidecolor="#0000ff"
     guideopacity="0.494118"
     guidehicolor="#ff0000"
     guidehiopacity="0.494118"
     showgrid="false"
     snaptogrid="true"
     inkscape:zoom="0.43262028"
     inkscape:cx="500.46363"
     inkscape:cy="296.4509"
     inkscape:window-width="833"
     inkscape:window-height="645"
     inkscape:window-x="38"
     inkscape:window-y="97"
     inkscape:current-layer="canada"
     inkscape:document-rotation="0"
     inkscape:window-maximized="0">
    <inkscape:grid
       id="GridFromPre046Settings"
       type="xygrid"
       originx="0"
       originy="0"
       spacingx="132.28346"
       spacingy="132.28346"
       color="#000aff"
       empcolor="#3f3fff"
       opacity="1.000000"
       empopacity="0.38"
       empspacing="5" />
  </sodipodi:namedview>
  <rect
     style="fill:#ffffff;fill-opacity:1"
     id="mat"
     width="496"
     height="661.41248"
     x="248"
     y="0" />
  <rect
     style="fill:#ff0000;fill-opacity:1"
     id="left"
     x="0"
     y="0"
     width="248"
     height="661.41248" />
  <path
     style="fill:#ff0000;fill-opacity:1"
     d="m 322.21964,326.79821 -19.98073,6.82935 92.97322,81.5957 c 7.03334,20.97055 -2.44083,27.15244 -8.47727,38.15036 l 100.93252,-12.8108 -2.62886,101.57466 20.90492,-0.60134 -4.55882,-100.7303 101.03186,11.97709 c -6.25285,-13.2046 -11.81744,-20.21666 -6.03289,-41.33089 l 92.91113,-77.30474 -16.25918,-5.88566 c -13.29329,-10.25822 5.74375,-49.40726 8.61563,-74.11232 0,0 -54.25167,18.6562 -57.80648,8.89466 l -13.81481,-26.53975 -49.35583,54.21903 c -5.39252,1.29137 -7.68967,-0.855 -8.95443,-5.41027 l 22.80117,-113.29844 -36.10511,20.30678 c -3.02265,1.29243 -6.0453,0.17738 -8.03735,-3.34532 l -34.72149,-69.70287 -35.8071,72.37075 c -2.69981,2.5932 -5.4014,2.89369 -7.64355,1.1303 l -34.37915,-19.28538 20.63707,112.4131 c -1.64082,4.46303 -5.57346,5.71892 -10.19791,3.30293 l -47.1793,-53.60102 c -6.17126,9.88801 -10.35401,26.04413 -18.51199,29.66458 -8.15797,3.38984 -35.4807,-6.85064 -53.79401,-10.84856 6.25639,22.57731 25.81673,60.08553 13.43874,72.37837 z"
     id="leaf" />
  <rect
     style="fill:#ff0000;fill-opacity:1"
     id="right"
     x="744"
     y="0"
     width="248"
     height="661.41248" />
</svg>

<?xml version="1.0" encoding="UTF-8" standalone="no"?>
<!-- Created with Sodipodi ("http://www.sodipodi.com/") -->
<svg
   xmlns:dc="http://purl.org/dc/elements/1.1/"
   xmlns:cc="http://web.resource.org/cc/"
   xmlns:rdf="http://www.w3.org/1999/02/22-rdf-syntax-ns#"
   xmlns:svg="http://www.w3.org/2000/svg"
   xmlns="http://www.w3.org/2000/svg"
   xmlns:sodipodi="http://inkscape.sourceforge.net/DTD/sodipodi-0.dtd"
   xmlns:inkscape="http://www.inkscape.org/namespaces/inkscape"
   style="fill:#28ff09; fill-opacity:14.1176%; stroke:none; "
   width="280mm"
   height="529.13000pt"
   id="canada"
   sodipodi:docbase="/Users/daniel/Desktop/updated flags"
   sodipodi:docname="canada.svg"
   sodipodi:version="0.32"
   inkscape:version="0.42">
  <metadata
     id="metadata2989">
    <rdf:RDF>
      <cc:Work
         rdf:about="">
        <dc:format>image/svg+xml</dc:format>
        <dc:type
           rdf:resource="http://purl.org/dc/dcmitype/StillImage" />
      </cc:Work>
    </rdf:RDF>
  </metadata>
  <defs
     id="defs3" />
  <sodipodi:namedview
     id="base"
     gridoriginx="0.000000"
     gridoriginy="0.000000"
     gridspacingx="35mm"
     gridspacingy="35mm"
     gridtolerance="10px"
     gridcolor="#000aff"
     gridopacity="1.000000"
     guidetolerance="5.000000"
     guidecolor="#0000ff"
     guideopacity="0.494118"
     guidehicolor="#ff0000"
     guidehiopacity="0.494118"
     showgrid="false"
     snaptogrid="true"
     inkscape:zoom="0.43262028"
     inkscape:cx="500.46363"
     inkscape:cy="296.45090"
     inkscape:window-width="701"
     inkscape:window-height="507"
     inkscape:window-x="38"
     inkscape:window-y="97"
     inkscape:current-layer="canada" />
  <rect
     style="fill:#ffffff;fill-opacity:1.0000000"
     id="mat"
     width="496.00000"
     height="661.41248"
     x="248.00000"
     y="0.0000000" />
  <rect
     style="fill:#ff0000;fill-opacity:1.0000000"
     id="left"
     x="0.0000000"
     y="0.0000000"
     width="248.00000"
     height="661.41248" />
  <path
     style="fill:#ff0000;fill-opacity:1.0000000"
     d="M 322.21964,326.79821 L 302.23891,333.62756 L 395.21213,415.22326 C 402.24547,436.19381 392.77130,442.37570 386.73486,453.37362 L 487.66738,440.56282 L 485.03852,542.13748 L 505.94344,541.53614 L 501.38462,440.80584 L 602.41648,452.78293 C 596.16363,439.57833 590.59904,432.56627 596.38359,411.45204 L 689.29472,334.14730 L 673.03554,328.26164 C 659.74225,318.00342 678.77929,278.85438 681.65117,254.14932 C 681.65117,254.14932 627.39950,272.80552 623.84469,263.04398 L 610.02988,236.50423 L 560.67405,290.72326 C 555.28153,292.01463 552.98438,289.86826 551.71962,285.31299 L 574.52079,172.01455 L 538.41568,192.32133 C 535.39303,193.61376 532.37038,192.49871 530.37833,188.97601 L 495.65684,119.27314 L 459.84974,191.64389 C 457.14993,194.23709 454.44834,194.53758 452.20619,192.77419 L 417.82704,173.48881 L 438.46411,285.90191 C 436.82329,290.36494 432.89065,291.62083 428.26620,289.20484 L 381.08690,235.60382 C 374.91564,245.49183 370.73289,261.64795 362.57491,265.26840 C 354.41694,268.65824 327.09421,258.41776 308.78090,254.41984 C 315.03729,276.99715 334.59763,314.50537 322.21964,326.79821 z "
     id="leaf" />
  <rect
     style="fill:#ff0000;fill-opacity:1.0000000"
     id="right"
     x="744.00000"
     y="0.0000000"
     width="248.00000"
     height="661.41248" />
</svg>
